!!!OTL: 96e. Die verwundete Dame.
!!!ARE: Europa, Mitteleuropa, Deutschland, Schlesien, Hainau; Fraustadt
!!!SCT: E0096C
!!!TXL: @@DE
!!!YEM: Copyright 1995, estate of Helmut Schaffrath.
**kern	**text
*ICvox	*
*M3/4	*
*k[f#]	*
*G:	*
!LO:TX:a:t=Langſam.	!
!LO:TX:a:t=Mündl. aus Schleſien (Hainau, Frauſtadt rc.)	!
{8d	Jch
8g	wollt
16bL	ein-
16aJ	.
=1	=1
8gL	-mal
8d	.
8BJ	.
8b	recht
16ccL	früh
16b	.
16aJ	.
16g	auf-
=2	=2
4a	-ſtehn
8r}	.
{8d	Jch
8g	wollt
16bL	ein-
16aJ	.
=3	=3
8gL	-mal
8d	.
8BJ	.
8b	recht
16ccL	früh
16b	.
16aJ	.
16g	auf-
=4	=4
4a	-ſtehn
8r}	.
{16ddL	und
16ccJ	.
8b	in
8dd	den
=5	=5
(8ddL	grü-
16ccJ)	.
16b	-nen
8cc}	Wald,
{16ccL	und
16bJ	.
8a	in
8cc	den
=6	=6
(8ccL	grü-
16bJ)	.
16a	-nen
8b}	Wald
{16ddL	ſpa-
16ccJ	.
8b	-ʒie-
8a	-ren
=7	=7
(8.gL	gehn,
16a	.
8bJ)}	.
{16ddL	ſpa-
16ccJ	.
8b/	-ʒie-
8a	-ren
=8	=8
4g	gehn.
8r}	.
==	==
!!!AGN: erzaehlendes Volks - Lied, Sage, Liebe, Leid, Tod, Ballade ?
!!!ONB: ESAC (Essen Associative Code) Database: ERK1
!!!AMT: simple triple
!!!AIN: vox
!!!EED: Helmut Schaffrath
!!!EEV: 1.0
!!!GTL: Liebesgeschichten mit tragischem Schluss
!!!URL-scan: https://rosdok.uni-rostock.de/mcrviewer/recordIdentifier/rosdok_ppn745146120/iview2/phys_0409.iview2?x=-422.27491384562836&y=1472.3671177618671&scale=0.554360769283424&rotation=0&layout=singlePageLayout
!!!ENC: Anna Maria Matuszewska
!!!EEV: 2024/11/29
*-	*-
